X: 1
T:Bagatelle No.25 in A, WoO.59
C:Ludwig van Beethoven
V:1
V:2
M:3/8
L:1/16
Q:300
K:Am

V:1
_B2A2 A/G/A/B/|c4 d^d|e3 efA|c4 dB|
V:2
F,A,CA,CA,|F,A,CA,CA,|E,A,CA,[D,D]F,|G,EG,EG,F|
%

V:1
c/g/G/g/ A/g/B/g/ c/g/d/g/|e/g/c'/b/ a/g/f/e/ d/g/f/d/|c/g/G/g/ A/g/B/g/ c/g/d/g/|
V:2
[C2E2] z [FG][EG][DFG]|[C2E2G2] [F,2A,2][F,2A,2]|C2 z [FG][EG][DFG]|
%

V:1
e/g/c'/b/ a/g/f/e/ d/g/f/d/|e/f/e/^d/ e/B/e/d/ e/B/e/d/|e3 Be^d|e3 Be z|
V:2
[C2E2G2] [F,2A,2][G,2B,2]|[^G,2B,2] z2 z2|z6|z4 z ^d|
